X:1
T:Title
%%score { ( 1 3 ) | 2 }
L:1/8
Q:1/4=100
M:4/4
K:F
V:1 treble nm="Grand Piano"
V:3 treble 
V:2 bass 
V:1
 A>A AG FCFG | A2 B2 A4 | [EG]>[EG] [EG][DF] E[DF][EG][FA] | [EB]2 [Ec]2 A4 | A>A AG FCFG | %5
w: J.~H.~Rosecrans * * * * * * *|||||
 A2 B2 A4 | [B,EG]>[B,EG] [B,EG][A,F] [G,CE][A,CF][B,CG][CFA] | [DEB]2 [B,CE]2 [A,CF]4 | %8
w: |||
 [Fc]4 [FA]2 z2 | B2 A2 [EG]4 | [GB]4 [EG]2 z2 | [CFA]2 [CGB]2 [CAc]4 | [Fc]4 [FA]2 z2 | %13
w: |||||
 B2 A2 [EG]4 | [GB]4 [EG]2 z2 | [CFA]2 [B,EG]2 [A,F]4 |] %16
w: |||
V:2
 [F,CF]>[F,CF] [F,CF][F,B,C] [F,A,C][F,A,][F,A,C][F,B,C] | [F,CF]2 [F,DF]2 [F,CF]4 | %2
 [C,C]>[C,C] [C,C][C,C] [C,C][C,C][C,C][C,C] | [C,C]2 [C,C]2 [F,CF]4 | %4
 [F,CF]>[F,CF] [F,CF][F,B,C] [F,A,C][F,A,][F,A,C][F,B,C] | [F,CF]2 [F,DF]2 [F,CF]4 | %6
 C,>C, C,C, C,C,C,C, | C,2 C,2 F,4 | [F,A,]>F, F,F, F,F,[F,CF][F,CF] | [G,CE]2 [F,CF]2 [C,C]4 | %10
 [C,C]>C, E,E, G,G,C,B, | A,2 G,2 F,4 | [F,A,]>F, F,F, F,F,[F,CF][F,CF] | [G,CE]2 [F,CF]2 [C,C]4 | %14
 [C,C]>C, E,E, G,G,C,C, | C,2 C,2 F,4 |] %16
V:3
 x8 | x8 | x8 | x8 | x8 | x8 | x8 | x8 | z z/ A,/ A,A, CCAA | x8 | z z/ C/ CC CC[CEG][CEG] | x8 | %12
 z z/ A,/ A,A, CCAA | x8 | z z/ C/ CC CC[CEG][CGB] | x8 |] %16

